X: 872
T: The green banner
C: anon.
O: Ireland
B: Francis O'Neill: "The Dance Music of Ireland" (1907) no. 872
R: Hornpipe
Z: Transcribed by Frank Nordberg - http://www.musicaviva.com
F: http://www.musicaviva.com/abc/tunes/ireland/oneill-1001/oneill-1001-087
2.abc
M: C|
L: 1/8
K: G
G2|D>GB>G d>GB>G|e>fg>e d>BA>B|G>FG>A B>AB>G|A>BA>F G>FE>F|D>GB>G d>GB>G|
e>fg>e d>BA>B|G>Bd>g e>cA>F|G2G2G2:|
|:d2|g>be>g d>gB>e|d>Bg>e d>BA>B|G>Bd>B e>dc>B|A>GA>B A2D>C|B,>dg>b d2c>B
|A>Bc>d e2g>e|d>BG>B A>GF>A|G2G2G2:|
W:
W:
W: From Musica Viva - http://www.musicaviva.com
W: the Internet center for free sheet music downloads.


